icon-themes/sifr_svg/cmd/lc_wrapmenu.svg

<svg viewBox="0 0 24 24" xmlns="http://www.w3.org/2000/svg"><g fill="#555753"><path d="m1 2v2h22v-2zm0 4v2h3v-2zm5 0v12h12v-12zm14 0v2h3v-2zm-12 2h8v8h-8zm-7 3v2h3v-2zm19 0v2h3v-2zm-19 5v2h3v-2zm19 0v2h3v-2zm-19 4v2h22v-2z"/><path d="m8 8v8h8v-8z" opacity=".35"/></g></svg>

<svg xmlns="http://www.w3.org/2000/svg" viewBox="0 0 24 24">
  <path
     style="fill:#555753"
     d="M 1,2 V 4 H 23 V 2 Z M 1,6 V 8 H 4 V 6 Z M 6,6 V 18 H 18 V 6 Z m 14,0 v 2 h 3 V 6 Z M 8,8 h 8 v 8 H 8 Z m -7,3 v 2 h 3 v -2 z m 19,0 v 2 h 3 V 11 Z M 1,16 v 2 h 3 v -2 z m 19,0 v 2 h 3 V 16 Z M 1,20 v 2 h 22 v -2 z"
     />
  <path
     style="opacity:0.35;fill:#555753"
     d="m 8,8 v 8 h 8 V 8 Z"
     />
</svg>
